img/illustrations/Personal_account.svg

<svg width="145" height="145" viewBox="0 0 145 145" fill="none" xmlns="http://www.w3.org/2000/svg">
<path d="M123.97 121.21H22.46" stroke="#007B64" stroke-width="2" stroke-linecap="round" stroke-linejoin="round"/>
<path d="M17.38 121.21H5" stroke="#007B64" stroke-width="2" stroke-linecap="round" stroke-linejoin="round"/>
<path d="M140 121.21H131.55" stroke="#007B64" stroke-width="2" stroke-linecap="round" stroke-linejoin="round"/>
<path d="M104.69 121.21H39.8799C38.1683 121.2 36.5303 120.512 35.3237 119.298C34.1171 118.084 33.4399 116.442 33.4399 114.73V104.36C33.4399 86.5701 41.3699 72.1301 59.0299 71.9501C59.2456 71.9499 59.4582 72.0013 59.6499 72.1001L70.6499 77.6301C71.1544 77.8766 71.7085 78.0048 72.2699 78.0048C72.8314 78.0048 73.3855 77.8766 73.8899 77.6301L84.9399 72.1001C85.1317 72.0013 85.3443 71.9499 85.5599 71.9501C103.23 72.1301 111.16 86.5701 111.16 104.36V114.73C111.16 116.447 110.479 118.094 109.266 119.309C108.052 120.524 106.407 121.207 104.69 121.21V121.21Z" fill="white"/>
<path d="M109.05 89.7701C108.583 94.2392 106.583 98.4087 103.39 101.57C100.23 104.74 100.71 117.7 98.9099 120.39L100.81 121.21L105.45 120.06L108.14 119.16L109.93 116.48L111.46 108.74L110.95 99.4201L110.24 94.4201L109.05 89.7701Z" fill="#EBEBEB"/>
<path d="M69.8401 79.7801H75.3301C75.5021 79.7813 75.6686 79.8415 75.8015 79.9507C75.9344 80.06 76.0257 80.2116 76.0601 80.3801L79.6001 97.9801C79.6259 98.0973 79.622 98.219 79.5889 98.3343C79.5557 98.4495 79.4942 98.5547 79.4101 98.6401L73.1201 105.2C73.0509 105.274 72.9672 105.333 72.8744 105.373C72.7815 105.413 72.6813 105.434 72.5801 105.434C72.4789 105.434 72.3787 105.413 72.2858 105.373C72.1929 105.333 72.1093 105.274 72.0401 105.2L65.7601 98.6401C65.676 98.5547 65.6145 98.4495 65.5813 98.3343C65.5481 98.219 65.5443 98.0973 65.5701 97.9801L69.1001 80.3801C69.1348 80.2099 69.2276 80.057 69.3626 79.9476C69.4976 79.8381 69.6663 79.7789 69.8401 79.7801V79.7801Z" fill="#FFC463"/>
<path d="M75.98 80.4701H69.18C69.0633 80.4697 68.9505 80.4285 68.861 80.3536C68.7715 80.2787 68.711 80.1749 68.69 80.0601L67.83 74.9901C67.8167 74.9013 67.8275 74.8105 67.8614 74.7273C67.8953 74.6441 67.951 74.5715 68.0226 74.5173C68.0943 74.4631 68.1792 74.4291 68.2685 74.4191C68.3578 74.409 68.4481 74.4232 68.53 74.4601L72.37 76.2801C72.4365 76.3143 72.5102 76.3322 72.585 76.3322C72.6598 76.3322 72.7335 76.3143 72.8 76.2801L76.63 74.4601C76.7117 74.4194 76.8031 74.4023 76.894 74.4108C76.9849 74.4192 77.0716 74.4529 77.1444 74.508C77.2172 74.5631 77.2731 74.6374 77.3059 74.7226C77.3387 74.8078 77.347 74.9005 77.33 74.9901L76.44 80.0601C76.4201 80.17 76.364 80.2701 76.2807 80.3444C76.1973 80.4187 76.0914 80.463 75.98 80.4701V80.4701Z" fill="#FFC463"/>
<path d="M33.4901 101.11C33.5501 100.11 33.6301 99.0401 33.7501 98.0301C33.9635 96.1242 34.2975 94.2338 34.7501 92.3701C37.6501 80.7001 45.2501 72.3701 58.3101 71.9701C58.7286 71.96 59.1424 72.06 59.5101 72.2601C63.6494 74.4161 68.243 75.5542 72.9101 75.5801C77.1501 75.6654 81.3278 74.5491 84.9601 72.3601C85.3652 72.0992 85.8383 71.9636 86.3201 71.9701C103.45 72.5601 111.15 86.8301 111.15 104.36V112.36C111.15 114.718 110.213 116.979 108.546 118.646C106.879 120.313 104.618 121.25 102.26 121.25H42.2601C39.9067 121.234 37.6558 120.285 36.002 118.61C34.3482 116.936 33.4268 114.674 33.4401 112.32V109.26" stroke="#007B64" stroke-width="1.79" stroke-linecap="round" stroke-linejoin="round"/>
<path d="M48.46 105.65V121.21" stroke="#007B64" stroke-width="2" stroke-miterlimit="10" stroke-linecap="round"/>
<path d="M96.4199 105.65V121.21" stroke="#007B64" stroke-width="2" stroke-miterlimit="10" stroke-linecap="round"/>
<path d="M90.9501 29.6701C91.5556 30.4025 92.1166 31.1705 92.6301 31.9701C94.5148 34.881 95.7363 38.1707 96.208 41.6062C96.6798 45.0417 96.3903 48.539 95.3601 51.8501C94.0886 56.1196 91.6539 59.9509 88.3285 62.9153C85.0031 65.8796 80.9183 67.8598 76.5314 68.6344C72.1445 69.409 67.6285 68.9473 63.4891 67.301C59.3497 65.6547 55.7501 62.8888 53.0934 59.3129C50.4367 55.737 48.8277 51.4923 48.4464 47.0538C48.0652 42.6154 48.9269 38.1584 50.9349 34.1818C52.9429 30.2053 56.0181 26.8661 59.8161 24.538C63.6142 22.21 67.9853 20.985 72.4401 21.0001C74.9512 21.0009 77.4471 21.3888 79.8401 22.1501C81.0482 22.5443 82.2248 23.029 83.3601 23.6001C83.9001 23.8801 84.4201 24.1701 84.9401 24.4801" fill="white"/>
<path d="M96.02 37.4701C96.02 37.4701 94.46 37.5201 92.8 42.4701C91.91 45.1201 86.53 54.0201 82.04 55.8501C75.3 58.5301 74.36 67.4001 73.97 68.3201C73.28 69.9601 78.46 68.3201 78.46 68.3201L81.74 66.8501L85.92 64.5901L90.92 60.0601L93.49 56.2901L95.49 52.2901L96.44 45.1201L96.02 37.4701Z" fill="#EBEBEB"/>
<path d="M90.9501 29.6701C91.5556 30.4025 92.1166 31.1705 92.6301 31.9701C94.5148 34.881 95.7363 38.1707 96.208 41.6062C96.6798 45.0417 96.3903 48.539 95.3601 51.8501C94.0886 56.1196 91.6539 59.9509 88.3285 62.9153C85.0031 65.8796 80.9183 67.8598 76.5314 68.6344C72.1445 69.409 67.6285 68.9473 63.4891 67.301C59.3497 65.6547 55.7501 62.8888 53.0934 59.3129C50.4367 55.737 48.8277 51.4923 48.4464 47.0538C48.0652 42.6154 48.9269 38.1584 50.9349 34.1818C52.9429 30.2053 56.0181 26.8661 59.8161 24.538C63.6142 22.21 67.9853 20.985 72.4401 21.0001C74.9512 21.0009 77.4471 21.3888 79.8401 22.1501C81.0482 22.5443 82.2248 23.029 83.3601 23.6001C83.9001 23.8801 84.4201 24.1701 84.9401 24.4801" stroke="#007B64" stroke-width="2" stroke-linecap="round" stroke-linejoin="round"/>
</svg>

<svg width="145" height="145" fill="none" xmlns="http://www.w3.org/2000/svg"><path d="M123.97 121.21H22.46m-5.08 0H5m135 0h-8.45" stroke="#007B64" stroke-width="2" stroke-linecap="round" stroke-linejoin="round"/><path d="M104.69 121.21H39.88a6.478 6.478 0 01-6.44-6.48v-10.37c0-17.79 7.93-32.23 25.59-32.41.216 0 .428.051.62.15l11 5.53a3.69 3.69 0 003.24 0l11.05-5.53a1.35 1.35 0 01.62-.15c17.67.18 25.6 14.62 25.6 32.41v10.37a6.48 6.48 0 01-6.47 6.48z" fill="#fff"/><path d="M109.05 89.77a19.45 19.45 0 01-5.66 11.8c-3.16 3.17-2.68 16.13-4.48 18.82l1.9.82 4.64-1.15 2.69-.9 1.79-2.68 1.53-7.74-.51-9.32-.71-5-1.19-4.65z" fill="#EBEBEB"/><path d="M69.84 79.78h5.49a.75.75 0 01.73.6l3.54 17.6a.721.721 0 01-.19.66l-6.29 6.56a.735.735 0 01-.834.173.734.734 0 01-.246-.173l-6.28-6.56a.72.72 0 01-.19-.66l3.53-17.6a.75.75 0 01.74-.6z" fill="#FFC463"/><path d="M75.98 80.47h-6.8a.5.5 0 01-.49-.41l-.86-5.07a.5.5 0 01.7-.53l3.84 1.82a.47.47 0 00.43 0l3.83-1.82a.49.49 0 01.7.53l-.89 5.07a.5.5 0 01-.46.41z" fill="#FFC463"/><path d="M33.49 101.11c.06-1 .14-2.07.26-3.08a45.382 45.382 0 011-5.66c2.9-11.67 10.5-20 23.56-20.4.419-.01.832.09 1.2.29a29.36 29.36 0 0013.4 3.32 22.47 22.47 0 0012.05-3.22 2.45 2.45 0 011.36-.39c17.13.59 24.83 14.86 24.83 32.39v8a8.89 8.89 0 01-8.89 8.89h-60a8.879 8.879 0 01-8.82-8.93v-3.06" stroke="#007B64" stroke-width="1.79" stroke-linecap="round" stroke-linejoin="round"/><path d="M48.46 105.65v15.56m47.96-15.56v15.56" stroke="#007B64" stroke-width="2" stroke-miterlimit="10" stroke-linecap="round"/><path d="M90.95 29.67c.606.732 1.167 1.5 1.68 2.3a23.649 23.649 0 012.73 19.88A24 24 0 1172.44 21c2.511 0 5.007.389 7.4 1.15a25.29 25.29 0 013.52 1.45c.54.28 1.06.57 1.58.88" fill="#fff"/><path d="M96.02 37.47s-1.56.05-3.22 5c-.89 2.65-6.27 11.55-10.76 13.38-6.74 2.68-7.68 11.55-8.07 12.47-.69 1.64 4.49 0 4.49 0l3.28-1.47 4.18-2.26 5-4.53 2.57-3.77 2-4 .95-7.17-.42-7.65z" fill="#EBEBEB"/><path d="M90.95 29.67c.606.732 1.167 1.5 1.68 2.3a23.649 23.649 0 012.73 19.88A24 24 0 1172.44 21c2.511 0 5.007.389 7.4 1.15a25.29 25.29 0 013.52 1.45c.54.28 1.06.57 1.58.88" stroke="#007B64" stroke-width="2" stroke-linecap="round" stroke-linejoin="round"/></svg>
